src/images/Error/psyduck.svg

<svg xmlns="http://www.w3.org/2000/svg" width="183" height="236" viewBox="-1.25 -0.3 182.6 235.7"><path fill="#0d131a" d="M83.2 40.2 70.55 39Q57.7 37.4 56.9 35.65q-.65-1.35-.2-5.7.4-4.3 1.25-5.1 1.4-1.35 12.25 3.65 5.4 2.5 10.55 5.25L70.2 21.65Q59.65 9.2 59.6 7.55q-.05-1.95 2.85-4.4T67.4.7q2.4 0 9.05 9.9 7.1 10.6 11.1 21.35l-1.4-14.85Q84.9 2.05 85.7 1q1-1.3 4.35-.9 3.2.35 4.35 1.6.85.9 0 19.05L93.35 38.7 83.2 40.2M144.8 234.75q-3.1.65-9.3-3.2l-5.55-4-8.05 3.75q-8.55 3.5-11.15 2.55-1.5-.55-1.25-6.25.25-5.3 1.65-10.1l37.25-12.65q7.75 4.45 14.85 12.65 7.45 8.65 5.1 11.6-1.45 1.85-10.2-1.25l-8.45-3.5-1.2 4.95q-1.6 5.05-3.7 5.45"/><path fill="#fff1ac" d="m149.2 219.45-1.4 6.45q-1.55 5.5-3.4 6.05-1.65.5-6.65-2.2-5.9-3.2-9.2-8.05-.7-1.05-1.1-.75-.35.3.15 1.65l1.1 2.8q-3.35 2.15-8.1 4.1-5.5 2.25-7.25 1.55-1.35-.5-1.05-6.05.3-5.2 1.55-9.55L145 205.7q6.8 2.95 14.55 11.45 7.4 8.15 5.95 9.85-.65.7-6.35-1.35-5.75-2.05-9.05-4.15l.05-1.6q0-1.1-.3-1.4-.35-.35-.65.95"/><path fill="#dcd096" d="M132.55 218.15q-5 1.55-13 3.05l-7.05 1.2.45-4.55 33.25-12.2 4.45 3.5-6.4 3.7q-7.3 3.95-11.7 5.3"/><path fill="#0d131a" d="M82.15 216.3q3.85 6.6 5.4 10.4 2.5 6.05.45 7.05-2.55 1.2-11.3-2.8l-8.25-4.25-5.05 4.3q-5.55 4.3-8 4.1-2.35-.2-4.4-4.55l-1.55-4.3L39 228.5l-12.1.35q-2.05-2.35 7.25-11.05 9.15-8.45 16.8-11.8l31.2 10.3"/><path fill="#fff1ac" d="M84.25 224.45q2.45 5.9 1.25 6.65-1.2.75-6.9-1.8-5.7-2.5-8.5-4.95l.6-1.9q.25-1.1-.25-1.2-.5-.1-1 .75-1.8 2.9-6.95 6.6-5.15 3.75-7.1 3.45-3.4-.5-5.3-10.05-.2-1-.55-.9-.3.1-.4 1.25l.1 1.25q-4.75 1.65-11.65 2.7l-7.25.3q-.75-1.45 6.95-8.6 8.65-8.1 17.45-11.65l24.3 8.1q3 4.65 5.2 10"/><path fill="#dcd096" d="M62.4 216.9q-4.35-1.55-9.45-4.7l-4.25-2.9 3.7-2.05 28.05 9.05 2.55 5.25-6.6-1.05q-7.85-1.45-14-3.6"/><path fill="#0d131a" d="M12.15 187.2Q5.4 181.4 2.1 176q-3.35-5.35-1.45-7.25 3.1-3.15 12.3 1.75 5.6 3 7.4 3.7 4.2 1.7 7 1.15l.85 3.9q1.55 5 5.1 10.35t9.35 10.25q2.9 2.45 5.1 3.8-18.45-1.6-35.6-16.45"/><path fill="#f9be00" d="M15.45 186.3q-6.65-5.35-10.5-10.1-3.8-4.8-2.55-6.2 1.2-1.4 4.35-.2 1.65.65 6.95 3.6 11.1 6.2 17.1 5.45l15.55 22.55q-14-1.55-30.9-15.1"/><path fill="#d7a400" d="M23.45 192.25Q11.9 185 6.6 178.1q13.25 11.85 25.35 15.15 6 1.65 9.4.95l5 7.2q-10-1.1-22.9-9.15"/><path fill="#0d131a" d="M167.6 64.25q8.2 9.8 10.8 21.35 2.95 13.15-1.85 27.95-4.95 15.15-15.35 23.5l-26.1-31.75q3-3.5 5.55-9.05Q145.7 85.2 143.5 75q-2-9.1-7-18.35-3.7-6.75-3-7.45.95-.95 3.05-.65l1.9.55-.6-1.55q-.35-1.7.85-2.6l4.6-.1 3.2.95q.15-1 .6-2 .85-2 2.2-2.1 2.35-.2 4.75 3.7l4.7 9.2q.85 1.65 8.85 9.65"/><path fill="#f9be00" d="M165.35 65.35q8.8 11.2 10.25 22.1 2 14.45-1.75 26.2-3.85 12.15-13.65 20.9l-22.05-27.1q2.95-4.1 5.5-10 5.1-11.85 3.1-21.05-1.9-8.65-6.5-17.35-3.65-6.9-3.5-7.1.65-.85 2.55-.35.95.25 1.8.7-.5-1.05-.75-2.3-.55-2.45.55-3.25 1.05-.8 4.25.4l2.95 1.3.05-2q.25-2 .95-2.3 1.2-.45 3.45 3.25 1.85 3.1 3.85 7.95l2.9 3.15q3.55 3.65 6.05 6.85"/><path fill="#0d131a" d="M171.65 169.35q-.2 22.3-21.6 36.25-20.8 13.65-52.05 13.3-31.65-.35-52.6-15.15-20.85-14.65-20.65-36.15.1-11.45 5.95-25.35 5.9-14.1 15.8-26.25 10.7-13.1 23.45-20.5 14.2-8.25 28.8-8.1 14.8.15 29 9.15 12.65 7.95 23.2 21.7 9.6 12.5 15.3 26.75 5.5 13.85 5.4 24.35"/><path fill="#f9be00" d="M168.7 168.7q-.2 21.25-20.7 34.85-20.1 13.35-49.75 13-29.7-.3-49.95-14.1-20.75-14.1-20.55-35.3.1-10.85 5.8-24.1 5.7-13.35 15.35-24.95 10.35-12.4 22.6-19.45 13.6-7.85 27.5-7.7 13.9.15 27.35 8.3 12.1 7.3 22.2 19.95 9.4 11.8 14.85 25.3 5.4 13.35 5.3 24.2"/><path fill="#d7a400" d="m105.7 92.15 4.05.15q13.05 3.1 25.2 13.05 11 9 19.5 22.05l.05 1.6q0 15.25-14.3 26.05t-34.5 10.8q-20.2 0-34.5-10.8-14.25-10.8-14.25-26.05t14.25-26.05q14.3-10.8 34.5-10.8M90.7 210q19.5 1.95 38.65-2.25 18.2-3.95 27.5-11.4-9.5 9.8-24.85 15.15-15.5 5.45-33.8 5.2-29.75-.3-49.95-14.05Q27.5 188.5 27.7 167.3q6.95 19.7 25.1 30.85Q68.6 207.8 90.7 210"/><path fill="#0d131a" d="M90.55 35.5q28.75-1.6 48.95 11.65 19.1 12.6 20.8 31.45 1.8 19.85-15.65 34-17.35 14.1-45.4 15.7Q71 129.85 51 118.2q-20.2-11.85-22-31.6-1.8-19.95 15.9-34.75 17.75-14.8 45.65-16.35"/><path fill="#f9be00" d="M90.85 37.6q26.05-1.45 45.7 10.65 19.6 12.1 21.3 30.65 1.65 18.55-15.6 32.65-17.25 14.15-43.3 15.6-26.1 1.45-45.7-10.65-19.65-12.1-21.3-30.65-1.7-18.55 15.6-32.65 17.25-14.15 43.3-15.6"/><path fill="#0d131a" d="m40.45 63.6.05 2.2L42 65q1.75-.7 2.95 0 1.2.65.3 5.35-1.3 6.75-1.2 10 .25 7.6 1.6 18.7 1.05 8.75 2.35 16.1 2.4 14.1.3 23.65-1.55 7.3-5.55 11.2l-4.45 2.9-4.75 2.05q-6.45 1.75-11.5-.9-8.4-4.45-11.25-15-2.6-9.65-1-26.4 1.15-12.4 7-25 5.7-10.5 5.9-11.8 1.25-7.5 1.95-10.25 1.2-4.6 3.5-5.05 1.35-.3 2.7 1.8l1.1 2.1q1.15-1.1 2.55-2.15 2.85-2.05 4.2-1.55 1.4.5 1.75 2.85"/><path fill="#f9be00" d="m31.15 67.2 2.5-2.05q2.7-2 3.95-1.55 1.25.45 1.4 3l-.1 2.4q.7-.65 1.55-1.15 1.7-1 2.55-.35.3.25-.15 4.25l-.8 7.1q-.1 2.2.75 13.7 1 13.45 2.25 20.85 2.4 14.25 1.25 22.15-.8 5.5-4.5 11.65-1.75 2.4-1.45 3.5.25 1.3 3.6-1.25l-1.1 1.4q-1.55 1.7-3.9 3-3.8 2.05-6.3 2.1 4.15-1.3 3.15-2.5-1-1.15-4.25-.65-9.85 1.6-15.1-7.7-5.8-10.3-3.95-31.1 1.1-12.9 6.85-26.2 5.6-10.9 5.65-11.7.6-5.15 1.6-8.7 1.15-4.2 2.4-4.1 1.25.15 2.15 3.9"/><path fill="#0d131a" d="M103.75 87.5q3.65-.3 9.3 3.4 6.9 4.45 9.8 5.3 3.6 1.05 10.25 1.1 5.35.05 6.55 1.15 1.3 1.2 1.4 4.95.15 4.15 1.55 6.2l3.4 2.65q3.5 2.4 5.6 4.4 7.55 7.2 6.8 16.9-.7 9.8-14.8 16.95-15.1 7.65-36.6 7.1-23.5-.55-35.9-5.85-14.9-6.4-14.3-19.75.2-4.15 1.6-9.4 1.3-4.6 1.15-6.45-.1-1.6-1.5-4.4-1.05-2.05-.2-3.85 1.5-3.1 9.95-4.1 11.05-1.25 14.85-3 3-1.4 11.3-7.75 6.9-5.35 9.8-5.55"/><path fill="#fff1ac" d="M104.65 89.7q3.35-.2 8 3.4 5.6 4.25 8.45 5.1 3.25.95 10 1.25 5.45.2 6.6 1.25 1.2 1.1 1.4 4.8.2 4.05 1.5 5.9 1.2 1.7 8.45 6 6.65 5.45 6.6 14.45-.05 6.65-7.65 12.5-5.9 4.6-15.05 7.85-3.75 1.35-11.5 2.35l-18.2.9q-10.3-.4-20.95-2.9-9.55-2.2-13.35-4.5-4.8-2.9-6.9-6.2-2.7-4.15-2.4-10.55.15-3.65 1.3-8.95.95-4.55.8-6.3-.1-1.35-1.2-3.8-.8-1.7 0-3.35.95-2 9.75-3.25 10.6-1.45 14.1-3.25l10.4-7.2q7.35-5.35 9.85-5.5"/><path fill="#0d131a" d="M95.35 98.7q1.2.45 2.45 1.65 1.25 1.25 1.75 2.6.55 1.35-.15 1.65-.7.25-1.55-.9l-1.4-1.9-2.25-1.35q-1.45-.9-.65-1.65l1.8-.1M113.15 101.65l-.9 1.4q-.6.85-1.35.55-.5-.15-.25-1.1.2-.95.9-1.85.65-.9 1.45-1.3l1.15-.1q.65.4.05 1.2l-1.05 1.2"/><path fill="#dcd096" d="M66.5 141.75q4.25 3.85 17.55 6.7 13.8 2.95 28.45 2.85 16.75-.1 27.75-4.35 12.95-5 15.5-14.95-.05 6.65-7.65 12.5-5.95 4.6-15.05 7.85-3.8 1.35-11.55 2.35l-18.2.9q-10.3-.4-20.95-2.9-9.55-2.2-13.35-4.5-4.85-2.95-6.95-6.15-2.75-4.15-2.5-10.55.2-4.15.85-6.75l1-4.4-.45 7.95q.55 8.85 5.55 13.45"/><path fill="#0d131a" d="M114.6 84.55q-5.1-4.85-4.25-10.5.85-5.65 7.2-8.7 6.35-3.1 14.5-1.85 8.1 1.25 13.25 6.1 5.1 4.9 4.25 10.5-.85 5.65-7.2 8.75-6.35 3.1-14.5 1.8-8.1-1.25-13.25-6.1"/><path fill="#fff" d="M116.3 83.65q-4.6-4.15-3.8-9.05.8-4.9 6.5-7.6 5.75-2.7 13.05-1.65 7.3 1.05 11.9 5.25 4.6 4.2 3.75 9.05-.8 4.9-6.5 7.6-5.75 2.7-13.05 1.65-7.25-1.05-11.85-5.25"/><path fill="#0d131a" d="M125.55 78.25q-.8.05-1.4-.5-.6-.55-.65-1.4-.05-.8.5-1.4.55-.6 1.4-.65.8-.05 1.4.5.6.55.65 1.4.05.8-.5 1.4-.55.6-1.4.65M88.25 87.5q-5.8 5.45-14.95 6.75-9.1 1.3-16.2-2.2-7.1-3.55-8-9.9-.9-6.35 4.9-11.75 5.8-5.4 14.9-6.7 9.1-1.3 16.2 2.25 7.1 3.5 8.05 9.85.9 6.3-4.9 11.7"/><path fill="#fff" d="M86.6 86.45q-5.2 4.7-13.35 5.85-8.15 1.15-14.5-1.95-6.3-3.05-7.15-8.55-.8-5.5 4.35-10.15 5.2-4.7 13.35-5.85 8.15-1.15 14.5 1.9 6.35 3.1 7.15 8.6.85 5.45-4.35 10.15"/><path fill="#0d131a" d="M73.7 80.25q-.8.1-1.45-.45-.6-.55-.7-1.35-.05-.8.45-1.45.55-.6 1.35-.7.85-.05 1.45.45.65.55.7 1.35.1.85-.45 1.45-.5.65-1.35.7"/></svg>

<?xml version='1.0' encoding='utf-8'?>
<svg xmlns="http://www.w3.org/2000/svg" version="1.1" width="183px" height="236px" viewBox="-1.25 -0.3 182.6 235.7"><g><path fill="#0d131a" d="M83.2 40.2 L70.55 39.0 Q57.7 37.4 56.9 35.65 56.25 34.3 56.7 29.95 57.1 25.65 57.95 24.85 59.35 23.5 70.2 28.5 75.6 31.0 80.75 33.75 L70.2 21.65 Q59.65 9.2 59.6 7.55 59.55 5.6 62.45 3.15 65.35 0.7 67.4 0.7 69.8 0.7 76.45 10.6 83.55 21.2 87.55 31.95 L86.15 17.1 Q84.9 2.05 85.7 1.0 86.7 -0.3 90.05 0.1 93.25 0.45 94.4 1.7 95.25 2.6 94.4 20.75 L93.35 38.7 83.2 40.2"/><path fill="#0d131a" d="M144.8 234.75 Q141.7 235.4 135.5 231.55 L129.95 227.55 121.9 231.3 Q113.35 234.8 110.75 233.85 109.25 233.3 109.5 227.6 109.75 222.3 111.15 217.5 L148.4 204.85 Q156.15 209.3 163.25 217.5 170.7 226.15 168.35 229.1 166.9 230.95 158.15 227.85 L149.7 224.35 148.5 229.3 Q146.9 234.35 144.8 234.75"/><path fill="#fff1ac" d="M149.2 219.45 L147.8 225.9 Q146.25 231.4 144.4 231.95 142.75 232.45 137.75 229.75 131.85 226.55 128.55 221.7 127.85 220.65 127.45 220.95 127.1 221.25 127.6 222.6 L128.7 225.4 Q125.35 227.55 120.6 229.5 115.1 231.75 113.35 231.05 112.0 230.55 112.3 225.0 112.6 219.8 113.85 215.45 L145.0 205.7 Q151.8 208.65 159.55 217.15 166.95 225.3 165.5 227.0 164.85 227.7 159.15 225.65 153.4 223.6 150.1 221.5 L150.15 219.9 Q150.15 218.8 149.85 218.5 149.5 218.15 149.2 219.45"/><path fill="#dcd096" d="M132.55 218.15 Q127.55 219.7 119.55 221.2 L112.5 222.4 112.95 217.85 146.2 205.65 150.65 209.15 144.25 212.85 Q136.95 216.8 132.55 218.15"/><path fill="#0d131a" d="M82.15 216.3 Q86.0 222.9 87.55 226.7 90.05 232.75 88.0 233.75 85.45 234.95 76.7 230.95 L68.45 226.7 63.4 231.0 Q57.85 235.3 55.4 235.1 53.05 234.9 51.0 230.55 L49.45 226.25 39.0 228.5 26.9 228.85 Q24.85 226.5 34.15 217.8 43.3 209.35 50.95 206.0 L82.15 216.3"/><path fill="#fff1ac" d="M84.25 224.45 Q86.7 230.35 85.5 231.1 84.3 231.85 78.6 229.3 72.9 226.8 70.1 224.35 L70.7 222.45 Q70.95 221.35 70.45 221.25 69.95 221.15 69.45 222.0 67.65 224.9 62.5 228.6 57.35 232.35 55.4 232.05 52.0 231.55 50.1 222.0 49.9 221.0 49.55 221.1 49.25 221.2 49.15 222.35 L49.25 223.6 Q44.5 225.25 37.6 226.3 L30.35 226.6 Q29.6 225.15 37.3 218.0 45.95 209.9 54.75 206.35 L79.05 214.45 Q82.05 219.1 84.25 224.45"/><path fill="#dcd096" d="M62.4 216.9 Q58.05 215.35 52.95 212.2 L48.7 209.3 52.4 207.25 80.45 216.3 83.0 221.55 76.4 220.5 Q68.55 219.05 62.4 216.9"/><path fill="#0d131a" d="M12.15 187.2 Q5.4 181.4 2.1 176.0 -1.25 170.65 0.65 168.75 3.75 165.6 12.95 170.5 18.55 173.5 20.35 174.2 24.55 175.9 27.35 175.35 L28.2 179.25 Q29.75 184.25 33.3 189.6 36.85 194.95 42.65 199.85 45.55 202.3 47.75 203.65 29.3 202.05 12.15 187.2"/><path fill="#f9be00" d="M15.45 186.3 Q8.8 180.95 4.95 176.2 1.15 171.4 2.4 170.0 3.6 168.6 6.75 169.8 8.4 170.45 13.7 173.4 24.8 179.6 30.8 178.85 L46.35 201.4 Q32.35 199.85 15.45 186.3"/><path fill="#d7a400" d="M23.45 192.25 Q11.9 185.0 6.6 178.1 19.85 189.95 31.95 193.25 37.95 194.9 41.35 194.2 L46.35 201.4 Q36.35 200.3 23.45 192.25"/><path fill="#0d131a" d="M167.6 64.25 Q175.8 74.05 178.4 85.6 181.35 98.75 176.55 113.55 171.6 128.7 161.2 137.05 L135.1 105.3 Q138.1 101.8 140.65 96.25 145.7 85.2 143.5 75.0 141.5 65.9 136.5 56.65 132.8 49.9 133.5 49.2 134.45 48.25 136.55 48.55 L138.45 49.1 137.85 47.55 Q137.5 45.85 138.7 44.95 L143.3 44.85 146.5 45.8 Q146.65 44.8 147.1 43.8 147.95 41.8 149.3 41.7 151.65 41.5 154.05 45.4 L158.75 54.6 Q159.6 56.25 167.6 64.25"/><path fill="#f9be00" d="M165.35 65.35 Q174.15 76.55 175.6 87.45 177.6 101.9 173.85 113.65 170.0 125.8 160.2 134.55 L138.15 107.45 Q141.1 103.35 143.65 97.45 148.75 85.6 146.75 76.4 144.85 67.75 140.25 59.05 136.6 52.15 136.75 51.95 137.4 51.1 139.3 51.6 140.25 51.85 141.1 52.3 140.6 51.25 140.35 50.0 139.8 47.55 140.9 46.75 141.95 45.95 145.15 47.15 L148.1 48.45 148.15 46.45 Q148.4 44.45 149.1 44.15 150.3 43.7 152.55 47.4 154.4 50.5 156.4 55.35 L159.3 58.5 Q162.85 62.15 165.35 65.35"/><path fill="#0d131a" d="M171.65 169.35 Q171.45 191.65 150.05 205.6 129.25 219.25 98.0 218.9 66.35 218.55 45.4 203.75 24.55 189.1 24.75 167.6 24.85 156.15 30.7 142.25 36.6 128.15 46.5 116.0 57.2 102.9 69.95 95.5 84.15 87.25 98.75 87.4 113.55 87.55 127.75 96.55 140.4 104.5 150.95 118.25 160.55 130.75 166.25 145.0 171.75 158.85 171.65 169.35"/><path fill="#f9be00" d="M168.7 168.7 Q168.5 189.95 148.0 203.55 127.9 216.9 98.25 216.55 68.55 216.25 48.3 202.45 27.55 188.35 27.75 167.15 27.85 156.3 33.55 143.05 39.25 129.7 48.9 118.1 59.25 105.7 71.5 98.65 85.1 90.8 99.0 90.95 112.9 91.1 126.35 99.25 138.45 106.55 148.55 119.2 157.95 131.0 163.4 144.5 168.8 157.85 168.7 168.7"/><path fill="#d7a400" d="M105.7 92.15 L109.75 92.3 Q122.8 95.4 134.95 105.35 145.95 114.35 154.45 127.4 L154.5 129.0 Q154.5 144.25 140.2 155.05 125.9 165.85 105.7 165.85 85.5 165.85 71.2 155.05 56.95 144.25 56.95 129.0 56.95 113.75 71.2 102.95 85.5 92.15 105.7 92.15"/><path fill="#d7a400" d="M90.7 210.0 Q110.2 211.95 129.35 207.75 147.55 203.8 156.85 196.35 147.35 206.15 132.0 211.5 116.5 216.95 98.2 216.7 68.45 216.4 48.25 202.65 27.5 188.5 27.7 167.3 34.65 187.0 52.8 198.15 68.6 207.8 90.7 210.0"/><path fill="#0d131a" d="M90.55 35.5 Q119.3 33.9 139.5 47.15 158.6 59.75 160.3 78.6 162.1 98.45 144.65 112.6 127.3 126.7 99.25 128.3 71.0 129.85 51.0 118.2 30.8 106.35 29.0 86.6 27.2 66.65 44.9 51.85 62.65 37.05 90.55 35.5"/><path fill="#f9be00" d="M90.85 37.6 Q116.9 36.15 136.55 48.25 156.15 60.35 157.85 78.9 159.5 97.45 142.25 111.55 125.0 125.7 98.95 127.15 72.85 128.6 53.25 116.5 33.6 104.4 31.95 85.85 30.25 67.3 47.55 53.2 64.8 39.05 90.85 37.6"/><path fill="#0d131a" d="M40.45 63.6 L40.5 65.8 42.0 65.0 Q43.75 64.3 44.95 65.0 46.15 65.65 45.25 70.35 43.95 77.1 44.05 80.35 44.3 87.95 45.65 99.05 46.7 107.8 48.0 115.15 50.4 129.25 48.3 138.8 46.75 146.1 42.75 150.0 L38.3 152.9 33.55 154.95 Q27.1 156.7 22.05 154.05 13.65 149.6 10.8 139.05 8.2 129.4 9.8 112.65 10.95 100.25 16.8 87.65 22.5 77.15 22.7 75.85 23.95 68.35 24.65 65.6 25.85 61.0 28.15 60.55 29.5 60.25 30.85 62.35 L31.95 64.45 Q33.1 63.35 34.5 62.3 37.35 60.25 38.7 60.75 40.1 61.25 40.45 63.6"/><path fill="#f9be00" d="M31.15 67.2 L33.65 65.15 Q36.35 63.15 37.6 63.6 38.85 64.05 39.0 66.6 L38.9 69.0 Q39.6 68.35 40.45 67.85 42.15 66.85 43.0 67.5 43.3 67.75 42.85 71.75 L42.05 78.85 Q41.95 81.05 42.8 92.55 43.8 106.0 45.05 113.4 47.45 127.65 46.3 135.55 45.5 141.05 41.8 147.2 40.05 149.6 40.35 150.7 40.6 152.0 43.95 149.45 L42.85 150.85 Q41.3 152.55 38.95 153.85 35.15 155.9 32.65 155.95 36.8 154.65 35.8 153.45 34.8 152.3 31.55 152.8 21.7 154.4 16.45 145.1 10.65 134.8 12.5 114.0 13.6 101.1 19.35 87.8 24.95 76.9 25.0 76.1 25.6 70.95 26.6 67.4 27.75 63.2 29.0 63.3 30.25 63.45 31.15 67.2"/><path fill="#0d131a" d="M103.75 87.5 Q107.4 87.2 113.05 90.9 119.95 95.35 122.85 96.2 126.45 97.25 133.1 97.3 138.45 97.35 139.65 98.45 140.95 99.65 141.05 103.4 141.2 107.55 142.6 109.6 L146.0 112.25 Q149.5 114.65 151.6 116.65 159.15 123.85 158.4 133.55 157.7 143.35 143.6 150.5 128.5 158.15 107.0 157.6 83.5 157.05 71.1 151.75 56.2 145.35 56.8 132.0 57.0 127.85 58.4 122.6 59.7 118.0 59.55 116.15 59.45 114.55 58.05 111.75 57.0 109.7 57.85 107.9 59.35 104.8 67.8 103.8 78.85 102.55 82.65 100.8 85.65 99.4 93.95 93.05 100.85 87.7 103.75 87.5"/><path fill="#fff1ac" d="M104.65 89.7 Q108.0 89.5 112.65 93.1 118.25 97.35 121.1 98.2 124.35 99.15 131.1 99.45 136.55 99.65 137.7 100.7 138.9 101.8 139.1 105.5 139.3 109.55 140.6 111.4 141.8 113.1 149.05 117.4 155.7 122.85 155.65 131.85 155.6 138.5 148.0 144.35 142.1 148.95 132.95 152.2 129.2 153.55 121.45 154.55 L103.25 155.45 Q92.95 155.05 82.3 152.55 72.75 150.35 68.95 148.05 64.15 145.15 62.05 141.85 59.35 137.7 59.65 131.3 59.8 127.65 60.95 122.35 61.9 117.8 61.75 116.05 61.65 114.7 60.55 112.25 59.75 110.55 60.55 108.9 61.5 106.9 70.3 105.65 80.9 104.2 84.4 102.4 L94.8 95.2 Q102.15 89.85 104.65 89.7"/><path fill="#0d131a" d="M95.35 98.7 Q96.55 99.15 97.8 100.35 99.05 101.6 99.55 102.95 100.1 104.3 99.4 104.6 98.7 104.85 97.85 103.7 L96.45 101.8 94.2 100.45 Q92.75 99.55 93.55 98.8 L95.35 98.7"/><path fill="#0d131a" d="M113.15 101.65 L112.25 103.05 Q111.65 103.9 110.9 103.6 110.4 103.45 110.65 102.5 110.85 101.55 111.55 100.65 112.2 99.75 113.0 99.35 L114.15 99.25 Q114.8 99.65 114.2 100.45 L113.15 101.65"/><path fill="#dcd096" d="M66.5 141.75 Q70.75 145.6 84.05 148.45 97.85 151.4 112.5 151.3 129.25 151.2 140.25 146.95 153.2 141.95 155.75 132.0 155.7 138.65 148.1 144.5 142.15 149.1 133.05 152.35 129.25 153.7 121.5 154.7 L103.3 155.6 Q93.0 155.2 82.35 152.7 72.8 150.5 69.0 148.2 64.15 145.25 62.05 142.05 59.3 137.9 59.55 131.5 59.75 127.35 60.4 124.75 L61.4 120.35 60.95 128.3 Q61.5 137.15 66.5 141.75"/><path fill="#0d131a" d="M114.6 84.55 Q109.5 79.7 110.35 74.05 111.2 68.4 117.55 65.35 123.9 62.25 132.05 63.5 140.15 64.75 145.3 69.6 150.4 74.5 149.55 80.1 148.7 85.75 142.35 88.85 136.0 91.95 127.85 90.65 119.75 89.4 114.6 84.55"/><path fill="#ffffff" d="M116.3 83.65 Q111.7 79.5 112.5 74.6 113.3 69.7 119.0 67.0 124.75 64.3 132.05 65.35 139.35 66.4 143.95 70.6 148.55 74.8 147.7 79.65 146.9 84.55 141.2 87.25 135.45 89.95 128.15 88.9 120.9 87.85 116.3 83.65"/><path fill="#0d131a" d="M125.55 78.25 Q124.75 78.3 124.15 77.75 123.55 77.2 123.5 76.35 123.45 75.55 124.0 74.95 124.55 74.35 125.4 74.3 126.2 74.25 126.8 74.8 127.4 75.35 127.45 76.2 127.5 77.0 126.95 77.6 126.4 78.2 125.55 78.25"/><path fill="#0d131a" d="M88.25 87.5 Q82.45 92.95 73.3 94.25 64.2 95.55 57.1 92.05 50.0 88.5 49.1 82.15 48.2 75.8 54.0 70.4 59.8 65.0 68.9 63.7 78.0 62.4 85.1 65.95 92.2 69.45 93.15 75.8 94.05 82.1 88.25 87.5"/><path fill="#ffffff" d="M86.6 86.45 Q81.4 91.15 73.25 92.3 65.1 93.45 58.75 90.35 52.45 87.3 51.6 81.8 50.8 76.3 55.95 71.65 61.15 66.95 69.3 65.8 77.45 64.65 83.8 67.7 90.15 70.8 90.95 76.3 91.8 81.75 86.6 86.45"/><path fill="#0d131a" d="M73.7 80.25 Q72.9 80.35 72.25 79.8 71.65 79.25 71.55 78.45 71.5 77.65 72.0 77.0 72.55 76.4 73.35 76.3 74.2 76.25 74.8 76.75 75.45 77.3 75.5 78.1 75.6 78.95 75.05 79.55 74.55 80.2 73.7 80.25"/></g></svg>
